source/img/icon/icon-interior.svg

<svg width="40" height="62" viewBox="0 0 40 62" fill="none" xmlns="http://www.w3.org/2000/svg">
<g opacity="0.5">
<path d="M15.162 37.7172C14.8628 38.7124 14.9625 39.9067 15.162 41.2999C15.6608 43.8874 16.8578 47.2711 17.5561 50.9533H22.6433C23.3416 47.3706 24.5386 43.987 25.1371 41.2999C25.4364 39.9067 25.4364 38.6129 25.1371 37.7172C24.8379 36.8216 24.2394 36.1249 23.1421 35.4283H17.1571C15.96 36.1249 15.3615 36.8216 15.162 37.7172Z" fill="#149080"/>
<path d="M26.9327 57.6212H13.1671C11.8704 57.6212 10.8729 58.6164 10.8729 59.8106V62H13.1671H26.9327H29.227V59.8106C29.227 58.6164 28.2295 57.6212 26.9327 57.6212Z" fill="#149080"/>
<path d="M34.015 2.18943H22.3441C22.3441 0.995196 21.3466 0 20.0499 0C18.7531 0 17.7556 0.995196 17.7556 2.18943H6.08478L0 27.5669C0.798005 27.0693 1.59602 26.5717 2.59352 26.5717C3.99003 26.5717 4.78803 27.3679 5.48629 27.965C6.18454 28.5621 6.68329 28.7611 6.88279 28.7611C7.18204 28.7611 7.68079 28.4626 8.37905 27.965C9.0773 27.4674 9.97505 26.5717 11.2718 26.5717C12.5686 26.5717 13.4663 27.3679 14.1646 27.965C14.8628 28.4626 15.3616 28.7611 15.6608 28.7611C15.7606 28.7611 15.9601 28.6616 16.2593 28.5621C16.4588 28.4626 16.7581 28.164 17.1571 27.965C17.6559 27.5669 18.2544 26.9698 19.1521 26.7707C19.4514 26.6712 19.7506 26.6712 20.0499 26.6712C21.3466 26.6712 22.2444 27.4674 22.9426 28.0645C23.6409 28.5621 24.1397 28.8607 24.4389 28.8607C24.7382 28.8607 25.2369 28.5621 25.8354 28.0645C26.5337 27.4674 27.4314 26.6712 28.7282 26.6712C30.1247 26.6712 30.9227 27.4674 31.621 28.0645C31.9202 28.3631 32.2194 28.5621 32.5187 28.6616C32.7182 28.7611 32.9177 28.8607 33.1172 28.8607C33.4165 28.8607 33.9152 28.5621 34.5137 27.965C35.212 27.3679 36.1097 26.5717 37.4065 26.5717C38.404 26.5717 39.202 27.0693 40 27.5669L34.015 2.18943Z" fill="#149080"/>
<path d="M23.4413 53.1428H16.5585C15.8602 53.1428 15.4612 53.6404 15.4612 54.2375C15.4612 54.8346 15.96 55.3322 16.5585 55.3322H23.4413C24.1396 55.3322 24.5385 54.8346 24.5385 54.2375C24.6383 53.6404 24.1396 53.1428 23.4413 53.1428Z" fill="#149080"/>
<path d="M20.0499 28.7605C19.9501 28.7605 19.7506 28.86 19.4514 28.9595C19.2519 29.0591 19.0524 29.2581 18.8529 29.3576V33.0398H21.1471V29.4571C20.6484 29.0591 20.2494 28.7605 20.0499 28.7605Z" fill="#149080"/>
</g>
</svg>

<svg viewBox="0 0 40 62" fill="none" xmlns="http://www.w3.org/2000/svg"><g opacity="0.5"><path d="M15.162 37.717c-.3.995-.2 2.19 0 3.583.499 2.587 1.696 5.971 2.394 9.653h5.087c.699-3.582 1.896-6.966 2.494-9.653.3-1.393.3-2.687 0-3.583-.3-.895-.898-1.592-1.995-2.289h-5.985c-1.197.697-1.796 1.394-1.995 2.29Z" fill="#149080"/><path d="M26.933 57.621H13.167c-1.297 0-2.294.995-2.294 2.19V62h18.354v-2.19c0-1.194-.997-2.189-2.294-2.189Z" fill="#149080"/><path d="M34.015 2.19h-11.67C22.344.994 21.346 0 20.05 0s-2.294.995-2.294 2.19H6.085L0 27.566c.798-.498 1.596-.995 2.594-.995 1.396 0 2.194.796 2.892 1.393.699.597 1.197.796 1.397.796.299 0 .798-.298 1.496-.796.698-.498 1.596-1.393 2.893-1.393 1.297 0 2.194.796 2.893 1.393.698.498 1.197.796 1.496.796.1 0 .3-.1.598-.199.2-.1.5-.398.898-.597.499-.398 1.097-.995 1.995-1.194.3-.1.599-.1.898-.1 1.297 0 2.194.796 2.893 1.393.698.498 1.197.797 1.496.797.3 0 .798-.299 1.396-.797.699-.597 1.596-1.393 2.893-1.393 1.397 0 2.195.796 2.893 1.393.3.3.598.498.898.598.2.1.399.199.598.199.3 0 .798-.299 1.397-.896.698-.597 1.596-1.393 2.892-1.393.998 0 1.796.497 2.594.995L34.015 2.189Z" fill="#149080"/><path d="M23.441 53.143h-6.883c-.698 0-1.097.497-1.097 1.094 0 .598.499 1.095 1.097 1.095h6.883c.699 0 1.098-.497 1.098-1.095.1-.597-.4-1.094-1.098-1.094Z" fill="#149080"/><path d="M20.05 28.76c-.1 0-.3.1-.599.2-.2.1-.399.298-.598.398v3.682h2.294v-3.583c-.499-.398-.898-.697-1.097-.697Z" fill="#149080"/></g></svg>
